tellnet/images/service-images/pc-img.svg

<svg width="80" height="80" viewBox="0 0 80 80" fill="none" xmlns="http://www.w3.org/2000/svg">
<path d="M39.5801 37.1001H57.5744" stroke="white" stroke-linecap="round" stroke-linejoin="round"/>
<path d="M57.5744 56.5571H39.5801" stroke="white" stroke-linecap="round" stroke-linejoin="round"/>
<path d="M54.875 62.1165H41.3793C40.6635 62.1165 39.9769 61.8236 39.4707 61.3023C38.9645 60.7811 38.6802 60.0741 38.6802 59.3369V35.2469C38.6802 34.5097 38.9645 33.8027 39.4707 33.2814C39.9769 32.7601 40.6635 32.4673 41.3793 32.4673H54.875C55.5909 32.4673 56.2774 32.7601 56.7836 33.2814C57.2898 33.8027 57.5742 34.5097 57.5742 35.2469V59.3369C57.5742 60.0741 57.2898 60.7811 56.7836 61.3023C56.2774 61.8236 55.5909 62.1165 54.875 62.1165Z" stroke="white" stroke-linecap="round" stroke-linejoin="round"/>
<path d="M38.2308 50.5347C37.9921 50.5347 37.7633 50.4371 37.5946 50.2633C37.4258 50.0896 37.3311 49.8539 37.3311 49.6082C37.3311 49.3624 37.4258 49.1268 37.5946 48.953C37.7633 48.7793 37.9921 48.6816 38.2308 48.6816" stroke="white" stroke-linecap="round" stroke-linejoin="round"/>
<path d="M57.5741 34.3202V23.2017C57.5741 22.7102 57.3846 22.2389 57.0471 21.8914C56.7096 21.5439 56.2519 21.3486 55.7747 21.3486H21.5856C21.1083 21.3486 20.6506 21.5439 20.3132 21.8914C19.9757 22.2389 19.7861 22.7102 19.7861 23.2017V51.9244C19.7861 52.4158 19.9757 52.8872 20.3132 53.2347C20.6506 53.5822 21.1083 53.7775 21.5856 53.7775H37.7804" stroke="white" stroke-linecap="square" stroke-linejoin="round"/>
<path d="M53.9755 31.5409V25.0552H23.3853V45.439H37.7807" stroke="white" stroke-linejoin="round"/>
<path d="M41.3796 62.1162H30.583" stroke="white" stroke-linecap="round" stroke-linejoin="round"/>
<path d="M35.981 54.7041V62.1164" stroke="white" stroke-linecap="round" stroke-linejoin="round"/>
<path d="M54.9857 3.10691C61.93 6.19786 67.8058 11.3768 71.8432 17.9652C75.8807 24.5536 77.8916 32.2443 77.6125 40.0296C77.6077 40.1524 77.5556 40.2681 77.4679 40.3514C77.3802 40.4346 77.2639 40.4786 77.1447 40.4735C77.0255 40.4685 76.9131 40.4149 76.8323 40.3246C76.7515 40.2342 76.7088 40.1145 76.7137 39.9918C76.9859 33.1549 75.4378 26.3715 72.2369 20.3752C69.0361 14.3789 64.3042 9.39788 58.553 5.9709C52.8019 2.54392 46.2504 0.801385 39.6071 0.931749C32.9638 1.06211 26.4815 3.06041 20.8613 6.71054C15.2411 10.3607 10.6969 15.5237 7.72021 21.6412C4.74348 27.7587 3.44749 34.598 3.97242 41.4192C4.49735 48.2404 6.82321 54.784 10.6985 60.3424C14.5737 65.9007 19.8509 70.2622 25.9592 72.9551C26.0135 72.979 26.0628 73.0137 26.1041 73.0572C26.1454 73.1007 26.178 73.1522 26.2 73.2087C26.222 73.2652 26.233 73.3256 26.2323 73.3865C26.2316 73.4473 26.2193 73.5075 26.1961 73.5634C26.1728 73.6194 26.1391 73.6701 26.0968 73.7126C26.0545 73.7551 26.0045 73.7886 25.9496 73.8113C25.8947 73.8339 25.8361 73.8451 25.777 73.8444C25.7179 73.8436 25.6595 73.8309 25.6052 73.8069C21.0955 71.8215 17.0098 68.9407 13.5815 65.3288C10.1532 61.717 7.44948 57.445 5.62475 52.7569C3.80003 48.0688 2.89006 43.0564 2.94684 38.006C3.00361 32.9556 4.02602 27.9662 5.95565 23.3228C7.88528 18.6795 10.6843 14.4731 14.1929 10.944C17.7015 7.41486 21.8508 4.63215 26.404 2.75482C30.9571 0.877499 35.8247 -0.0576607 40.7289 0.00275084C45.633 0.0631624 50.4775 1.11797 54.9857 3.10691Z" fill="white"/>
<path d="M55.77 0.951248C63.5998 4.41036 70.1526 10.3537 74.4737 17.9154C78.7948 25.4771 80.6584 34.2622 79.7931 42.9908C78.9279 51.7193 75.3789 59.9353 69.6631 66.4419C63.9474 72.9484 56.3636 77.4056 48.0166 79.164C39.6695 80.9225 30.9953 79.8903 23.2576 76.2179C15.5199 72.5455 9.12303 66.4247 4.99881 58.7472C0.874601 51.0698 -0.761439 42.2368 0.329033 33.535C1.41951 24.8333 5.17951 16.7174 11.0613 10.3697C11.1438 10.2815 11.257 10.2306 11.3759 10.228C11.4949 10.2255 11.61 10.2716 11.696 10.3562C11.782 10.4408 11.832 10.5571 11.835 10.6796C11.838 10.8021 11.7937 10.9208 11.7119 11.0097C5.9495 17.2189 2.26353 25.1612 1.19127 33.6788C0.119002 42.1964 1.7165 50.844 5.75091 58.3612C9.78531 65.8783 16.0457 71.872 23.6195 75.4685C31.1933 79.065 39.6846 80.0763 47.8557 78.355C56.0267 76.6337 63.4503 72.2698 69.0443 65.8994C74.6383 59.529 78.1103 51.4851 78.9542 42.9403C79.7981 34.3955 77.9698 25.7965 73.7357 18.3967C69.5016 10.9969 63.0832 5.18323 55.416 1.80308C55.3616 1.77922 55.3123 1.74454 55.2709 1.70103C55.2295 1.65753 55.1969 1.60605 55.1748 1.54953C55.1528 1.49302 55.1418 1.43255 55.1424 1.37165C55.1431 1.31075 55.1554 1.25058 55.1787 1.19459C55.2019 1.13859 55.2357 1.08787 55.278 1.04532C55.3203 1.00278 55.3704 0.96927 55.4253 0.946667C55.4802 0.924065 55.5389 0.912825 55.5981 0.913613C55.6572 0.914401 55.7156 0.927189 55.77 0.951248Z" fill="white"/>
</svg>

<?xml version="1.0" encoding="UTF-8" standalone="no"?>
<svg width="80" xmlns="http://www.w3.org/2000/svg" fill="none" viewBox="0 0 80 80" height="80">
 <path stroke-linejoin="round" stroke="#fff" stroke-linecap="round" d="m39.58 37.1h17.994"/>
 <path stroke-linejoin="round" stroke="#fff" stroke-linecap="round" d="m57.574 56.557h-17.994"/>
 <path stroke-linejoin="round" stroke="#fff" stroke-linecap="round" d="m54.875 62.116h-13.496c-0.715 0-1.402-0.292-1.908-0.814-0.507-0.521-0.791-1.228-0.791-1.965v-24.09c0-0.737 0.284-1.444 0.791-1.966 0.506-0.521 1.193-0.814 1.908-0.814h13.496c0.716 0 1.402 0.293 1.909 0.814 0.506 0.522 0.79 1.229 0.79 1.966v24.09c0 0.737-0.284 1.444-0.79 1.965-0.507 0.522-1.193 0.814-1.909 0.814z"/>
 <path stroke-linejoin="round" stroke="#fff" stroke-linecap="round" d="m38.231 50.535c-0.239 0-0.468-0.098-0.636-0.272-0.169-0.173-0.264-0.409-0.264-0.655s0.095-0.481 0.264-0.655c0.168-0.174 0.397-0.271 0.636-0.271"/>
 <path stroke-linejoin="round" stroke="#fff" stroke-linecap="square" d="m57.574 34.32v-11.118c0-0.492-0.189-0.963-0.527-1.311-0.337-0.347-0.795-0.542-1.272-0.542h-34.189c-0.478 0-0.935 0.195-1.273 0.542-0.337 0.348-0.527 0.819-0.527 1.311v28.722c0 0.492 0.19 0.963 0.527 1.311 0.338 0.347 0.795 0.543 1.273 0.543h16.194"/>
 <path stroke-linejoin="round" stroke="#fff" d="m53.976 31.541v-6.486h-30.591v20.384h14.396"/>
 <path stroke-linejoin="round" stroke="#fff" stroke-linecap="round" d="m41.38 62.116h-10.797"/>
 <path stroke-linejoin="round" stroke="#fff" stroke-linecap="round" d="m35.981 54.704v7.412"/>
 <path d="m54.986 3.1069c6.944 3.091 12.82 8.2701 16.857 14.858 4.038 6.589 6.049 14.279 5.769 22.065-0.004 0.122-0.056 0.238-0.144 0.321-0.088 0.084-0.204 0.128-0.323 0.123-0.119-0.006-0.232-0.059-0.313-0.149-0.08-0.091-0.123-0.211-0.118-0.333 0.272-6.837-1.276-13.62-4.477-19.617-3.201-5.996-7.933-10.977-13.684-14.404-5.751-3.4271-12.303-5.1696-18.946-5.0392-6.643 0.1303-13.125 2.1286-18.746 5.7787-5.62 3.6505-10.164 8.8135-13.141 14.93-2.9765 6.119-4.2725 12.958-3.7476 19.779 0.525 6.821 2.8508 13.365 6.7256 18.923 3.876 5.559 9.153 9.92 15.261 12.613 0.055 0.024 0.104 0.059 0.145 0.102 0.041 0.044 0.074 0.095 0.096 0.152 0.022 0.056 0.033 0.117 0.032 0.177 0 0.061-0.013 0.122-0.036 0.177-0.023 0.056-0.057 0.107-0.099 0.15-0.043 0.042-0.093 0.076-0.147 0.098-0.055 0.023-0.114 0.034-0.173 0.033-0.059 0-0.117-0.013-0.172-0.037-4.509-1.985-8.595-4.866-12.023-8.478-3.429-3.612-6.1325-7.884-7.9572-12.572-1.8248-4.688-2.7347-9.701-2.678-14.751 0.0568-5.05 1.0792-10.04 3.0088-14.683 1.9297-4.643 4.7284-8.85 8.2374-12.379 3.509-3.5291 7.658-6.3118 12.211-8.1892 4.553-1.8773 9.421-2.8125 14.325-2.752 4.904 0.060362 9.749 1.1152 14.257 3.1041z" fill="#fff"/>
 <path d="m55.77 0.95125c7.83 3.4592 14.383 9.4028 18.704 16.964 4.321 7.562 6.184 16.347 5.319 25.076-0.865 8.728-4.414 16.944-10.13 23.451-5.716 6.506-13.299 10.964-21.646 12.722s-17.022 0.726-24.759-2.946c-7.738-3.672-14.135-9.793-18.259-17.471-4.1244-7.677-5.7604-16.51-4.67-25.212 1.0905-8.702 4.8505-16.818 10.732-23.165 0.083-0.088 0.196-0.139 0.315-0.142 0.119-0.002 0.234 0.044 0.32 0.128 0.086 0.085 0.136 0.201 0.139 0.324 0.003 0.122-0.041 0.241-0.123 0.33-5.7625 6.209-9.4485 14.151-10.521 22.669-1.072 8.517 0.5255 17.165 4.5599 24.682s10.295 13.511 17.869 17.107c7.573 3.597 16.065 4.608 24.236 2.887s15.594-6.085 21.188-12.456c5.594-6.37 9.066-14.414 9.91-22.959 0.844-8.544-0.984-17.144-5.218-24.543-4.234-7.4-10.653-13.214-18.32-16.594-0.054-0.0238-0.104-0.0585-0.145-0.102s-0.074-0.095-0.096-0.1515-0.033-0.1169-0.033-0.1779c0.001-0.0608 0.013-0.121 0.037-0.177 0.023-0.056 0.057-0.1067 0.099-0.1493 0.042-0.0425 0.092-0.07603 0.147-0.09863 0.055-0.02261 0.114-0.03385 0.173-0.03306s0.118 0.01358 0.172 0.03764z" fill="#fff"/>
</svg>
